!!!COM:	la Rue, Pierre de
!!!CDT:	~1452///-1518/11/20
!!!OPR:	Missa De feria
!!!ONM:	3
!!!OTL:	Credo
!!!AGN:	Mass; Credo
!!!SCT:	Rue1009c
!!!SCA:	Rue1009c
!!!voices:	5
!!!voices-OPR:	5
**kern	**kern	**kern	**kern	**kern
*staff5	*staff4	*staff3	*staff2	*staff1
*Ivox	*Ivox	*Ivox	*Ivox	*Ivox
*I"Bassus	*I"Tenor2	*I"Tenor1	*I"Contra	*I"Discantus
*I'B	*I'T2	*I'T1	*I'C	*I'D
*>[A,B,C]	*>[A,B,C]	*>[A,B,C]	*>[A,B,C]	*>[A,B,C]
*>A	*>A	*>A	*>A	*>A
*clefF4	*clefGv2	*clefGv2	*clefGv2	*clefG2
*k[]	*k[]	*k[]	*k[]	*k[]
*M2/1	*M2/1	*M2/1	*M2/1	*M2/1
*met(C2)	*met(C2)	*met(C2)	*met(C2)	*met(C2)
!!section: Patrem omnipotentem
!!!OMD: Patrem omnipotentem
!	!LO:TX:X=-40:Z=8:t=Canon at the upper fifth (two breves)	!	!	!
=1-	=1-	=1-	=1-	=1-
0D	1r	0r	0d	0a
.	1A	.	.	.
=2.	=2.	=2.	=2.	=2.
0D	1B-i	0r	1d	0f
.	1A	.	1d	.
=3	=3	=3	=3	=3
1F	1A	1r	2c\	1f
.	.	.	2.c\	.
2C/	2G/	1e	.	1g
.	.	.	4B\	.
2E\	[2G/	.	2G/	.
=4.	=4.	=4.	=4.	=4.
1D	2G/]	1f	1d	1a
.	2F/	.	.	.
1C	1G	1e	2r	[1cc
.	.	.	2G/	.
=5	=5	=5	=5	=5
1C	0r	1e	2A/	2cc\]
.	.	.	2.G/	4b\
.	.	.	.	4a/
1D	.	2d\	.	2b\
.	.	.	4F/	.
.	.	[2d\	2F/	[2a/
=6.	=6.	=6.	=6.	=6.
1E	0r	2d\]	1G	2a/]
.	.	2c\	.	2.g/
1D	.	1d	1A	.
.	.	.	.	4f#i/
.	.	.	.	2f#i/
=7	=7	=7	=7	=7
2GG/	1r	0r	2G/	2g/
1C	.	.	1G	2g/
.	1E	.	.	2g/
2C/	.	.	4F/	2g/
.	.	.	4E/	.
=8.	=8.	=8.	=8.	=8.
2.D\	1F	0r	2D/	2f/
.	.	.	2F/	2a/
4C/	.	.	.	.
2BB/	2G/	.	4E/	2b\
.	.	.	4D/	.
2GG/	[2G/	.	[2D/	[2dd\
=9	=9	=9	=9	=9
1AA	2G/]	1r	2D/]	4dd\]
.	.	.	.	4cc\
.	2F#i/	.	2C/	2a/
1GG	1G	1B	1D	1b
=10.	=10.	=10.	=10.	=10.
0r	1A	1c	0r	0r
.	2G/	2d\	.	.
.	2F/	[2d\	.	.
=11	=11	=11	=11	=11
0r	1E	2d\]	0r	0r
.	.	2c#i\	.	.
.	1D	1d	.	.
=12.	=12.	=12.	=12.	=12.
0r	1A	1e	0r	0r
.	2B-i\	2d\	.	.
.	2A/	2c\	.	.
=13	=13	=13	=13	=13
1r	2A/	1B	2r	0r
.	1G	.	2d\	.
1D	.	1A	2d\	.
.	2F#i/	.	2d\	.
=14.	=14.	=14.	=14.	=14.
2E\	1G	1e	1B	0r
2G\	.	.	.	.
2F\	1r	2f\	2A/	.
[2G\	.	2e\	[2B\	.
=15	=15	=15	=15	=15
4G\]	2E/	2e\	4B\]	1g
4F\	.	.	4A/	.
4E\	2F/	1d	4G/	.
4D\	.	.	4F/	.
1E	1G	.	1E	1g
.	.	2c#i\	.	.
=16.	=16.	=16.	=16.	=16.
1D	1A	1d	1F	1f
1GG	2G/	1r	1D	1g
.	2F/	.	.	.
=17	=17	=17	=17	=17
0r	1E	2B\	2r	2g/
.	.	2c\	2G/	2g/
.	1F	1d	2D/	1f
.	.	.	2D/	.
=18.	=18.	=18.	=18.	=18.
1C	2E/	1e	1.G	2g/
.	2F/	.	.	2a/
2GG/	1G	2d\	.	2b\
2AA/	.	2c\	4F/	2cc\
.	.	.	4E/	.
=19	=19	=19	=19	=19
1BB	1G	1B	2D/	1dd
.	.	.	2D/	.
1AA	1A	1c	1E	2cc\
.	.	.	.	2a/
=20.	=20.	=20.	=20.	=20.
1r	2r	2B\	1r	2b\
.	2A/	2c\	.	2.a/
1GG	1B-i	1d	1G	.
.	.	.	.	4g/
.	.	.	.	2g/
=21	=21	=21	=21	=21
1D	1A	1d	1F	0a
1AA	1A	1e	1E	.
=22.	=22.	=22.	=22.	=22.
1C	1G	2r	1E	1r
.	.	2e\	.	.
1D	2.F/	1f	2r	1a
.	.	.	2D/	.
.	4G/	.	.	.
=23	=23	=23	=23	=23
2AA/	2A/	1e	2.E/	1cc
1C	2G/	.	.	.
.	.	.	4F/	.
.	2E/	1e	2G/	1cc
2C/	[2A/	.	2E/	.
=24.	=24.	=24.	=24.	=24.
2D\	2A/]	1d	2F/	2a/
2BB/	1G	.	2D/	2b\
1AA	.	2.c\	1A	1cc
.	2F#i/	.	.	.
.	.	4d\	.	.
=25	=25	=25	=25	=25
2.GG/	0G	2e\	2r	2.b\
.	.	2d\	2D/	.
4AA/	.	.	.	4cc\
2BB/	.	2B\	2D/	2dd\
[2C/	.	[2e\	[2G/	[2cc\
=26.	=26.	=26.	=26.	=26.
2C/]	0r	2e\]	4G/]	2cc\]
.	.	.	4E/	.
2D\	.	1d	2F/	4b\
.	.	.	.	4a/
1E	.	.	1G	2g/
.	.	2c#i\	.	2e/
=27	=27	=27	=27	=27
0D	0r	0d	2.A/	2f/
.	.	.	.	1g
.	.	.	4G/	.
.	.	.	1A	.
.	.	.	.	2f#i/
=28.	=28.	=28.	=28.	=28.
0GG	0r	0r	0G	1g
.	.	.	.	2r
.	.	.	.	2g/
=29	=29	=29	=29	=29
2r	0r	0r	2r	2.g/
2C/	.	.	1G	.
.	.	.	.	4f/
2C/	.	.	.	4e/
.	.	.	.	4d/
2D\	.	.	2F/	2f/
=30.	=30.	=30.	=30.	=30.
2C/	0r	0r	2G/	2e/
2D\	.	.	2F/	2.d/
1E	.	.	1G	.
.	.	.	.	4c#i/
.	.	.	.	2c#i/
=31	=31	=31	=31	=31
1D	0r	0r	1A	1d
1F	.	.	1A	1r
=32.	=32.	=32.	=32.	=32.
2G\	0r	0r	1B-i	2r
2G\	.	.	.	2d/
2F\	.	.	1A	2.f/
[2D\	.	.	.	.
.	.	.	.	4g/
=33	=33	=33	=33	=33
2D\]	0r	0r	2F/	2a/
4C/	.	.	2G/	2b\
4BB/	.	.	.	.
2AA/	.	.	2.A/	2.cc\
[2F\	.	.	.	.
.	.	.	4G/	4b\
=34.	=34.	=34.	=34.	=34.
2F\]	0r	0r	2F/	2a/
2C/	.	.	2E/	2g/
1D	.	.	1F	1f
=35	=35	=35	=35	=35
1C	0r	0r	2G/	2e/
.	.	.	2A/	2cc\
2r	.	.	2G/	2.cc\
2C/	.	.	[2c\	.
.	.	.	.	4b\
=36.	=36.	=36.	=36.	=36.
1C	1E	0r	2c\]	2a/
.	.	.	2.c\	2g/
1D	1F	.	.	1f
.	.	.	4B\	.
.	.	.	2B\	.
=37	=37	=37	=37	=37
0C	1G	0r	0c	1e
.	1G	.	.	2r
.	.	.	.	2g/
=38.	=38.	=38.	=38.	=38.
1GG	0G	1B	0r	2g/
.	.	.	.	2g/
1C	.	1c	.	1e
=39	=39	=39	=39	=39
2BB/	1r	1d	2r	1d
2.GG/	.	.	2B\	.
.	1G	1d	2B\	2r
4AA/	.	.	.	.
4BB/	.	.	2B\	2dd\
4C/	.	.	.	.
=40.	=40.	=40.	=40.	=40.
0D	1F	0d	1A	2dd\
.	.	.	.	2dd\
.	1A	.	1F	4dd\
.	.	.	.	4cc\
.	.	.	.	4b\
.	.	.	.	4a/
=41	=41	=41	=41	=41
1GG	1G	1r	2G/	1b
.	.	.	2.D/	.
1D	1F	1d	.	1a
.	.	.	4E/	.
.	.	.	4F/	.
.	.	.	4G/	.
=42.	=42.	=42.	=42.	=42.
2AA/	0E	1c	[0A	2a/
2AA/	.	.	.	2.cc\
1C	.	1e	.	.
.	.	.	.	4b\
.	.	.	.	4a/
.	.	.	.	4g/
=43	=43	=43	=43	=43
1D	1F	1d	0A]	2f/
.	.	.	.	2d/
1AA	2E/	1c	.	2e/
.	2F/	.	.	2c/
=44.	=44.	=44.	=44.	=44.
0r	2G/	0B	0r	2e/
.	2.A/	.	.	2f/
.	.	.	.	1d
.	4G/	.	.	.
.	2G/	.	.	.
=45	=45	=45	=45	=45
0r	1A	1c	1F	1c
.	2r	2B\	2G/	1r
.	2A/	2c\	[2A/	.
=46.	=46.	=46.	=46.	=46.
0r	2F/	2d\	4A/]	0r
.	.	.	4G/	.
.	2G/	2.e\	2E/	.
.	1A	.	1F	.
.	.	4d\	.	.
.	.	2d\	.	.
=47	=47	=47	=47	=47
1C	1G	1e	0E	1.g
1C	2r	2r	.	.
.	2G/	2e\	.	2g/
=48.	=48.	=48.	=48.	=48.
1F	2A/	2c\	0r	1f
.	2A/	2d\	.	.
1C	2.c\	1e	.	2e/
.	.	.	.	2g/
.	4B\	.	.	.
=49	=49	=49	=49	=49
2D\	4A/	1d	0r	2f/
.	4G/	.	.	.
2GG/	1G	.	.	2g/
1D	.	2r	.	1a
.	2F#i/	2d\	.	.
=50.	=50.	=50.	=50.	=50.
2r	2G/	2e\	0r	2.g/
2.G\	2G/	2e\	.	.
.	.	.	.	4a/
.	2G/	2.g\	.	2b\
4F\	.	.	.	.
4E\	2G/	.	.	[2cc\
4D\	.	4f\	.	.
=51	=51	=51	=51	=51
2C/	2G/	4e\	0r	2cc\]
.	.	4d\	.	.
2D\	2F/	1d	.	4b\
.	.	.	.	4a/
1E	2G/	.	.	1g
.	2G/	2c#i\	.	.
=52.	=52.	=52.	=52.	=52.
0D	0A	2d\	0r	2f/
.	.	2d\	.	2a/
.	.	2d\	.	2a/
.	.	2d\	.	4dd\
.	.	.	.	4cc\
=53	=53	=53	=53	=53
0r	0r	2d\	1A	4b\
.	.	.	.	4a/
.	.	2c\	.	1a
.	.	2d\	1B-i	.
.	.	2d\	.	2g/
=54.	=54.	=54.	=54.	=54.
1AA	0r	0e	0A	1a
2AA/	.	.	.	2r
[2D\	.	.	.	2a/
=55	=55	=55	=55	=55
2D\]	0r	0r	1F	2a/
4C/	.	.	.	1cc
4BB/	.	.	.	.
1AA	.	.	1F	.
.	.	.	.	4b\
.	.	.	.	4a/
=56.	=56.	=56.	=56.	=56.
1GG	0r	0r	0G	2b\
.	.	.	.	2g/
1BB	.	.	.	1dd
=57	=57	=57	=57	=57
2AA/	0r	0r	1A	2.cc\
2C/	.	.	.	.
.	.	.	.	4b\
2D\	.	.	1F	4a/
.	.	.	.	4g/
[2F\	.	.	.	[2a/
=58.	=58.	=58.	=58.	=58.
4F\]	0r	0r	2G/	2a/]
4E\	.	.	.	.
2G\	.	.	2B\	1g
1D	.	.	1A	.
.	.	.	.	2f#i/
=59	=59	=59	=59	=59
2GG/	0r	0r	2.G/	1g
2.G\	.	.	.	.
.	.	.	4A/	.
.	.	.	4B\	1r
4E\	.	.	4c\	.
[2F\	.	.	[2d\	.
=60.	=60.	=60.	=60.	=60.
4F\]	0r	0r	2d\]	0r
4E\	.	.	.	.
4D\	.	.	2.c\	.
4C/	.	.	.	.
1D	.	.	.	.
.	.	.	4B\	.
.	.	.	2B\	.
=61	=61	=61	=61	=61
1C	0E	0r	[0c	1g
1C	.	.	.	2g/
.	.	.	.	[2cc\
=62.	=62.	=62.	=62.	=62.
1AA	0F	0r	0c]	2cc\]
.	.	.	.	2cc\
1AA	.	.	.	1a
=63	=63	=63	=63	=63
0GG	0G	0B	1r	2.b\
.	.	.	.	4cc\
.	.	.	1d	2dd\
.	.	.	.	[2g/
=64.	=64.	=64.	=64.	=64.
0r	0A	0c	1c	2g/]
.	.	.	.	4f#i/
.	.	.	.	4e/
.	.	.	1A	1f#i
=65	=65	=65	=65	=65
1GG	1G	0d	1B	1g
1D	1F	.	2A/	2r
.	.	.	[2A/	2a/
=66.	=66.	=66.	=66.	=66.
1AA	0E	0e	2A/]	2a/
.	.	.	4G/	2.cc\
.	.	.	4F/	.
1C	.	.	2E/	.
.	.	.	.	4b\
.	.	.	[2A/	4a/
.	.	.	.	4g/
=67	=67	=67	=67	=67
2.D\	2r	1d	2A/]	1f
.	2F/	.	2B\	.
4C/	.	.	.	.
1AA	2E/	1c	2c\	1a
.	2F/	.	2A/	.
=68.	=68.	=68.	=68.	=68.
2GG/	1G	0B	1d	1b
2.G\	.	.	.	.
.	1G	.	2r	[1g
4F\	.	.	.	.
4E\	.	.	2G/	.
4D\	.	.	.	.
=69	=69	=69	=69	=69
2C/	1G	2r	2G/	1g]
2C/	.	2c\	2G/	.
1E	1G	2B\	1E	1g
.	.	2c\	.	.
=70.	=70.	=70.	=70.	=70.
[0D	0A	1d	2F/	2.f/
.	.	.	2D/	.
.	.	.	.	4g/
.	.	1d	2.F/	2a/
.	.	.	.	[2d/
.	.	.	4G/	.
=71	=71	=71	=71	=71
0D]	1r	1d	2A/	2d/]
.	.	.	1D	2a/
.	1F	1d	.	2b\
.	.	.	2A/	[2dd\
=72.	=72.	=72.	=72.	=72.
0r	1G	0e	2.B\	2dd\]
.	.	.	.	2b\
.	.	.	4A/	.
.	2A/	.	2.F/	2.cc\
.	[2c\	.	.	.
.	.	.	4G/	4b\
=73	=73	=73	=73	=73
0r	4c\]	1r	2A/	4a/
.	4B\	.	.	4g/
.	4A/	.	2B\	1g
.	4G/	.	.	.
.	1A	1c	1c	.
.	.	.	.	2f#i/
=74.	=74.	=74.	=74.	=74.
2r	[0Gl	1d	1B	[0gl
2G\	.	.	.	.
2G\	.	2e\	1B	.
[2E\	.	[2g\	.	.
=75	=75	=75	=75	=75
4E\]	0G_	4g\]	0c	0g_
4D\	.	4f\	.	.
4C/	.	4e\	.	.
4BB/	.	4d\	.	.
2C/	.	1e	.	.
2C/	.	.	.	.
=76.	=76.	=76.	=76.	=76.
0GGl	0G]	0dl	0Bl	0g]
!!LO:LB:i:g=z
=77||	=77||	=77||	=77||	=77||
*>B	*>B	*>B	*>B	*>B
*clefF4	*clefGv2	*clefGv2	*clefGv2	*clefG2
*k[]	*k[]	*k[]	*k[]	*k[]
*M2/1	*M2/1	*M2/1	*M2/1	*M2/1
*met(C2)	*met(C2)	*met(C2)	*met(C2)	*met(C2)
!!section: Et incarnatus est
!!!OMD: Et incarnatus est
!	!LO:TX:X=-40:Z=8:t=Canon at the upper fifth (two breves)	!	!	!
0G	0r	0r	0r	1g
.	.	.	.	2e/
.	.	.	.	2f/
=78.	=78.	=78.	=78.	=78.
1E	0r	0r	0r	1g
1F	.	.	.	1a
=79	=79	=79	=79	=79
1G	0r	0r	1d	0b
1G	.	.	2B\	.
.	.	.	2c\	.
=80.	=80.	=80.	=80.	=80.
0G	0r	0r	1d	1b
.	.	.	1e	1b
=81	=81	=81	=81	=81
1F	0r	0r	1.f	1.a
1D	.	.	.	.
.	.	.	4e\	2f/
.	.	.	4d\	.
=82.	=82.	=82.	=82.	=82.
1E	0r	0r	2c\	1g
.	.	.	4B\	.
.	.	.	2.A/	.
1F	.	.	.	1a
.	.	.	[2d\	.
=83	=83	=83	=83	=83
0G	0r	0r	4d\]	0b
.	.	.	4c\	.
.	.	.	4B\	.
.	.	.	4A/	.
.	.	.	1B	.
=84.	=84.	=84.	=84.	=84.
1A	0r	0r	2A/	1cc
.	.	.	1c	.
2.AA/	.	.	.	2r
.	.	.	[2A/	[2cc\
4BB/	.	.	.	.
=85	=85	=85	=85	=85
2C/	0r	0r	2A/]	2cc\]
2D\	.	.	4G/	2a/
.	.	.	4F/	.
1BB	.	.	1G	2b\
.	.	.	.	[2dd\
=86.	=86.	=86.	=86.	=86.
0AA	0A	0r	2A/	4dd\]
.	.	.	.	4cc\
.	.	.	2F/	1cc
.	.	.	1E	.
.	.	.	.	[2a/
=87	=87	=87	=87	=87
0r	0B-i	0r	1r	2a/]
.	.	.	.	4g/
.	.	.	.	4f/
.	.	.	1d	1g
=88.	=88.	=88.	=88.	=88.
0AA	1A	0e	1c	0a
.	1A	.	1c	.
=89	=89	=89	=89	=89
0D	1.F	0f	1d	1r
.	.	.	2.A/	[1a
.	2G/	.	.	.
.	.	.	4B\	.
=90.	=90.	=90.	=90.	=90.
0C	1A	1e	0c	1a]
.	[1G	1e	.	[1cc
=91	=91	=91	=91	=91
0AA	1G]	1.c	1c	1cc]
.	1F	.	1A	1cc
.	.	2d\	.	.
=92.	=92.	=92.	=92.	=92.
0GG	0G	1e	2B\	1.b
.	.	.	1G	.
.	.	[1d	.	.
.	.	.	4F/	4a/
.	.	.	4E/	4g/
=93	=93	=93	=93	=93
1D	0r	1d]	2D/	2b\
.	.	.	2F/	1a
1E	.	1c	2G/	.
.	.	.	2E/	[2g/
=94.	=94.	=94.	=94.	=94.
0D	0A	0d	2F/	2g/]
.	.	.	2G/	4f#i/
.	.	.	.	4e/
.	.	.	1A	1f#i
=95	=95	=95	=95	=95
0GG	0B-i	0r	0G	1g
.	.	.	.	2r
.	.	.	.	2g/
=96.	=96.	=96.	=96.	=96.
1r	1A	0e	1r	1a
1AA	1A	.	1C	1cc
=97	=97	=97	=97	=97
0D	1r	0f	1F	2b\
.	.	.	.	2a/
.	1D	.	2F/	1dd
.	.	.	[2A/	.
=98.	=98.	=98.	=98.	=98.
1AA	2.E/	1e	2A/]	2.cc\
.	.	.	1c	.
.	4C/	.	.	4b\
1C	2E/	1e	.	2g/
.	2F/	.	2A/	[2a/
=99	=99	=99	=99	=99
2BB/	1G	1r	0d	2a/]
2GG/	.	.	.	2.g/
1D	1A	1A	.	.
.	.	.	.	4f#i/
.	.	.	.	2f#i/
=100.	=100.	=100.	=100.	=100.
[0GGl	[0Gl	2.B\	0d	[0gl
.	.	4G/	.	.
.	.	2B\	.	.
.	.	2c\	.	.
=101	=101	=101	=101	=101
0GG_	0G_	1d	[0Bl	0g_
.	.	1e	.	.
=102.	=102.	=102.	=102.	=102.
0GG]	0G]	0dl	0B]	0g]
!!LO:LB:i:g=z
=103||	=103||	=103||	=103||	=103||
*>C	*>C	*>C	*>C	*>C
*clefF4	*clefGv2	*clefGv2	*clefGv2	*clefG2
*k[]	*k[]	*k[]	*k[]	*k[]
*M2/1	*M2/1	*M2/1	*M2/1	*M2/1
*met(C2)	*met(C2)	*met(C2)	*met(C2)	*met(C2)
!	!	!LO:TX:X=-40:Z=8:t=Canon at the lower fifth (two breves)	!	!
!!section: Crucifixus
!!!OMD: Crucifixus
0r	0r	1d	0r	0r
.	.	1e	.	.
=104.	=104.	=104.	=104.	=104.
0r	0r	1d	0r	0r
.	.	[1B	.	.
=105	=105	=105	=105	=105
0r	1G	1B]	0r	0r
.	1A	2c\	.	.
.	.	2c\	.	.
=106.	=106.	=106.	=106.	=106.
0r	1G	0B	0r	0r
.	[1E	.	.	.
=107	=107	=107	=107	=107
0r	1E]	2c\	0r	1r
.	.	1e	.	.
.	2F/	.	.	1a
.	2F/	2d\	.	.
=108.	=108.	=108.	=108.	=108.
0r	0E	0e	0r	2g/
.	.	.	.	2g/
.	.	.	.	2e/
.	.	.	.	2g/
=109	=109	=109	=109	=109
1AA	2F/	0r	0r	4a/
.	.	.	.	4g/
.	1A	.	.	4f/
.	.	.	.	4e/
1BB-i	.	.	.	1d
.	2G/	.	.	.
=110.	=110.	=110.	=110.	=110.
1AA	0A	0r	0r	0c
1AA	.	.	.	.
=111	=111	=111	=111	=111
2FF/	0r	0r	0A	0c
2GG/	.	.	.	.
1AA	.	.	.	.
=112.	=112.	=112.	=112.	=112.
0GG	0r	0r	0B-i	0d
=113	=113	=113	=113	=113
2.AA/	0r	0r	1A	2.c/
4BB/	.	.	.	4d/
2C/	.	.	1A	2e/
[2D\	.	.	.	[2f/
=114.	=114.	=114.	=114.	=114.
2D\]	0r	0r	2F/	4f/]
.	.	.	.	4g/
4C/	.	.	2.F/	4a/
4BB/	.	.	.	4b\
1AA	.	.	.	2cc\
.	.	.	4G/	.
.	.	.	4A/	2a/
.	.	.	4F/	.
=115	=115	=115	=115	=115
1GG	0r	1d	2G/	2.b-i\
.	.	.	2B-i\	.
.	.	.	.	4a/
1D	.	1d	2A/	2f/
.	.	.	2F/	[2a/
=116.	=116.	=116.	=116.	=116.
1C	0r	1e	2.c\	2a/]
.	.	.	.	2.g/
.	.	.	4B\	.
1D	.	1d	1A	.
.	.	.	.	4f#i/
.	.	.	.	2f#i/
=117	=117	=117	=117	=117
0GG	1G	1B	0G	0g
.	1G	1d	.	.
=118.	=118.	=118.	=118.	=118.
0r	1A	1c	0r	0r
.	1G	2B\	.	.
.	.	[2e\	.	.
=119	=119	=119	=119	=119
0r	1E	2e\]	0r	0r
.	.	2.g\	.	.
.	1G	.	.	.
.	.	4f\	.	.
.	.	[2e\	.	.
=120.	=120.	=120.	=120.	=120.
1r	1F	2e\]	1r	0r
.	.	2d\	.	.
[1AA	2E/	1e	1E	.
.	[2A/	.	.	.
=121	=121	=121	=121	=121
1AA]	2A/]	0r	1F	0r
.	2.c\	.	.	.
1AA	.	.	2E/	.
.	4B\	.	.	.
.	[2A/	.	[2E/	.
=122.	=122.	=122.	=122.	=122.
1BB	2A/]	0r	2E/]	0r
.	2G/	.	2D/	.
2.AA/	1A	.	2E/	.
.	.	.	[2F/	.
4BB/	.	.	.	.
=123	=123	=123	=123	=123
2C/	0r	0r	2F/]	0r
1D	.	.	4E/	.
.	.	.	4D/	.
.	.	.	1E	.
2C#i/	.	.	.	.
=124.	=124.	=124.	=124.	=124.
2.D\	0r	0r	2r	2f/
.	.	.	2d\	2g/
4E\	.	.	.	.
4F\	.	.	2d\	1a
4G\	.	.	.	.
[2A\	.	.	[2c\	.
=125	=125	=125	=125	=125
2A\]	0r	0r	2c\]	2f/
1G	.	.	2B\	2g/
.	.	.	1A	1a
2F#i\	.	.	.	.
=126.	=126.	=126.	=126.	=126.
[0G	0r	2B\	2.G/	0b
.	.	2c\	.	.
.	.	.	4A/	.
.	.	1d	4B\	.
.	.	.	4c\	.
.	.	.	[2d\	.
=127	=127	=127	=127	=127
0G]	0r	2B\	2d\]	1r
.	.	2c\	1c	.
.	.	1d	.	1g
.	.	.	2B\	.
=128.	=128.	=128.	=128.	=128.
[0C	2E/	0e	[0c	1g
.	2F/	.	.	.
.	1G	.	.	1g
=129	=129	=129	=129	=129
0C]	2E/	1r	0c]	1.cc
.	2F/	.	.	.
.	1G	1e	.	.
.	.	.	.	2b\
=130.	=130.	=130.	=130.	=130.
0r	0A	1f	0r	2a/
.	.	.	.	2.cc\
.	.	2e\	.	.
.	.	.	.	4b\
.	.	2e\	.	[2a/
=131	=131	=131	=131	=131
0r	1r	2e\	0r	2a/]
.	.	2d\	.	4g/
.	.	.	.	4f/
.	1A	2d\	.	1e
.	.	2c#i\	.	.
=132.	=132.	=132.	=132.	=132.
1D	1B-i	0d	1F	0d
2D\	2A/	.	2F/	.
2D\	2A/	.	2F/	.
=133	=133	=133	=133	=133
2C/	2A/	0r	2E/	0r
2BB/	2G/	.	2D/	.
2AA/	2G/	.	2C/	.
2AA/	2F#i/	.	2C/	.
=134.	=134.	=134.	=134.	=134.
[0GG	0G	1d	[0D	0r
.	.	2d\	.	.
.	.	2d\	.	.
=135	=135	=135	=135	=135
0GG]	0r	2d\	0D]	0r
.	.	2d\	.	.
.	.	2d\	.	.
.	.	2d\	.	.
=136.	=136.	=136.	=136.	=136.
0r	1G	1d	0r	0r
.	2G/	1e	.	.
.	2G/	.	.	.
=137	=137	=137	=137	=137
0r	2G/	2d\	0r	0r
.	2G/	2c\	.	.
.	2G/	[1B	.	.
.	2G/	.	.	.
=138.	=138.	=138.	=138.	=138.
0r	1G	1B]	0r	0r
.	1A	1c	.	.
=139	=139	=139	=139	=139
0r	2G/	2B\	0r	0r
.	2F/	2d\	.	.
.	[1E	2c\	.	.
.	.	[2B\	.	.
=140.	=140.	=140.	=140.	=140.
0r	1E]	2B\]	0r	1r
.	.	1e	.	.
.	1F	.	.	1a
.	.	2d\	.	.
=141	=141	=141	=141	=141
1r	2E/	1e	0r	1g
.	2G/	.	.	.
1AA	2F/	1r	.	[1cc
.	[2E/	.	.	.
=142.	=142.	=142.	=142.	=142.
1AA	2E/]	0r	1r	2cc\]
.	1A	.	.	2a/
1BB	.	.	1D	1dd
.	2G#i/	.	.	.
=143	=143	=143	=143	=143
2AA/	1A	0r	2E/	2cc\
1D	.	.	2.F/	2.a/
.	1r	.	.	.
.	.	.	4E/	4g/
2C/	.	.	[2A/	2e/
=144.	=144.	=144.	=144.	=144.
2D\	0r	0r	2A/]	2f/
2BB/	.	.	2.G/	2g/
1AA	.	.	.	1a
.	.	.	4F#i/	.
.	.	.	2F#i/	.
=145	=145	=145	=145	=145
0GG	0r	0d	1G	1b
.	.	.	1G	1b
=146.	=146.	=146.	=146.	=146.
0GG	0r	1d	1G	1b
.	.	1d	1G	1b
=147	=147	=147	=147	=147
1GG	0G	1d	0D	1g
1GG	.	1B	.	1dd
=148.	=148.	=148.	=148.	=148.
0GG	1G	1d	1D	2dd\
.	.	.	.	1b
.	1G	1d	1D	.
.	.	.	.	[2g/
=149	=149	=149	=149	=149
0C	1G	0e	2C/	2g/]
.	.	.	2.E/	2g/
.	1E	.	.	2a/
.	.	.	4F/	.
.	.	.	[2G/	[2cc\
=150.	=150.	=150.	=150.	=150.
1GG	1G	[0d	2G/]	2cc\]
.	.	.	4F/	1b
.	.	.	4E/	.
1GG	1G	.	1D	.
.	.	.	.	[2g/
=151	=151	=151	=151	=151
0D	0A	0d]	1r	2g/]
.	.	.	.	4f#i/
.	.	.	.	4e/
.	.	.	1A	1f#i
=152.	=152.	=152.	=152.	=152.
0GG	[0G	0r	1B	0g
.	.	.	[1d	.
=153	=153	=153	=153	=153
1r	0G]	0r	2d\]	0r
.	.	.	2d\	.
1G	.	.	1d	.
=154.	=154.	=154.	=154.	=154.
1E	0r	0r	2r	0r
.	.	.	2c\	.
[1G	.	.	2B\	.
.	.	.	[2d\	.
=155	=155	=155	=155	=155
2G\]	0r	0r	4d\]	1r
.	.	.	4c\	.
2G\	.	.	4B\	.
.	.	.	4A/	.
2G\	.	.	1B	1b
2G\	.	.	.	.
=156.	=156.	=156.	=156.	=156.
1A	0r	0r	1A	1cc
2G\	.	.	1r	2b\
2F\	.	.	.	2a/
=157	=157	=157	=157	=157
1E	0r	0r	1G	1g
2D\	.	.	1A	1f
2F\	.	.	.	.
=158.	=158.	=158.	=158.	=158.
2E\	0r	1r	2G/	1r
2.D\	.	.	2F/	.
.	.	1e	1E	2.g/
4C/	.	.	.	.
2C/	.	.	.	.
.	.	.	.	4a/
=159	=159	=159	=159	=159
1D	0r	1.f	1D	2b\
.	.	.	.	1a
1r	.	.	1r	.
.	.	[2e\	.	[2g/
=160.	=160.	=160.	=160.	=160.
0r	1r	2e\]	0r	4g/]
.	.	.	.	4f/
.	.	1d	.	4e/
.	.	.	.	4d/
.	1A	.	.	1e
.	.	2c#i\	.	.
=161	=161	=161	=161	=161
0r	1.B-i	1d	0r	2d/
.	.	.	.	2d/
.	.	1r	.	2d/
.	[2A/	.	.	[2c/
=162.	=162.	=162.	=162.	=162.
0r	2A/]	0r	0r	4c/]
.	.	.	.	4B/
.	1G	.	.	4A/
.	.	.	.	4G/
.	.	.	.	1A
.	2F#i/	.	.	.
=163	=163	=163	=163	=163
0r	1G	2d\	1r	1G
.	.	2d\	.	.
.	1r	2d\	2G/	1r
.	.	2d\	2G/	.
=164.	=164.	=164.	=164.	=164.
2G\	0r	2d\	2G/	1r
2G\	.	2d\	2G/	.
2G\	.	1d	1B	2g/
2G\	.	.	.	2g/
=165	=165	=165	=165	=165
2.C/	2G/	1e	1.c	2g/
.	2G/	.	.	2g/
4D\	.	.	.	.
4E\	2G/	2c\	.	[1g
4C/	.	.	.	.
[2G\	2G/	2d\	2B\	.
=166.	=166.	=166.	=166.	=166.
4G\]	2G/	2e\	1B	2g/]
4F\	.	.	.	.
4E\	2G/	1d	.	2g/
4D\	.	.	.	.
1E	1G	.	2r	2g/
.	.	2c#i\	2E/	2g/
=167	=167	=167	=167	=167
1.D	1A	0d	2.F/	2f/
.	.	.	.	1f
.	.	.	4G/	.
.	2F/	.	2A/	.
4C/	2G/	.	2B\	4e/
4BB/	.	.	.	4d/
=168.	=168.	=168.	=168.	=168.
2AA/	2A/	0r	2E/	2c/
2BB/	1G	.	2D/	2d/
2C/	.	.	2E/	2r
2D\	2F#i/	.	2F/	2a/
=169	=169	=169	=169	=169
0GG	0G	0r	0D	2b\
.	.	.	.	2cc\
.	.	.	.	1dd
=170.	=170.	=170.	=170.	=170.
0r	0r	0r	1D	2r
.	.	.	.	2a/
.	.	.	2r	2b\
.	.	.	2A/	2cc\
=171	=171	=171	=171	=171
0r	0r	0r	2B\	2dd\
.	.	.	2c\	4cc\
.	.	.	.	4b\
.	.	.	2d\	2a/
.	.	.	2A/	2cc\
=172.	=172.	=172.	=172.	=172.
0r	0r	0r	2B\	2b\
.	.	.	2c\	2.a/
.	.	.	2d\	.
.	.	.	.	4b\
.	.	.	4c\	[2cc\
.	.	.	4B\	.
=173	=173	=173	=173	=173
0r	0r	1r	2A/	2cc\]
.	.	.	1c	4b\
.	.	.	.	4a/
.	.	2c\	.	2g/
.	.	2c\	4B\	2a/
.	.	.	4A/	.
=174.	=174.	=174.	=174.	=174.
0r	0r	2B\	2G/	2b\
.	.	2c\	2A/	1a
.	.	1d	1B	.
.	.	.	.	2g#i/
=175	=175	=175	=175	=175
1r	1r	1e	0A	0a
2D\	2F/	1r	.	.
2D\	2F/	.	.	.
=176.	=176.	=176.	=176.	=176.
2C/	2E/	0r	0r	0r
2D\	2F/	.	.	.
1BB	1G	.	.	.
=177	=177	=177	=177	=177
1AA	1A	0r	0A	1r
1AA	1r	.	.	1e
=178.	=178.	=178.	=178.	=178.
1D	0r	1r	1A	1f
1AA	.	1e	1A	2e/
.	.	.	.	2c/
=179	=179	=179	=179	=179
2D\	0r	1f	1A	2d/
1D	.	.	.	2.f/
.	.	2e\	1A	.
.	.	.	.	4g/
2AA/	.	2c\	.	[2e/
=180.	=180.	=180.	=180.	=180.
1D	1r	2d\	0A	2e/]
.	.	2f\	.	1d
1AA	1A	1e	.	.
.	.	.	.	2c#i/
=181	=181	=181	=181	=181
0D	1B-i	[0d	0F	2.d/
.	.	.	.	4e/
.	2A/	.	.	4f/
.	.	.	.	4g/
.	2F/	.	.	[2a/
=182.	=182.	=182.	=182.	=182.
1r	2G/	0d]	0r	2a/]
.	2B-i\	.	.	1g
2D\	1A	.	.	.
2D\	.	.	.	2f#i/
=183	=183	=183	=183	=183
2.E\	[0G	2B\	0r	[0g
.	.	2c\	.	.
4D\	.	.	.	.
2BB/	.	2d\	.	.
2C/	.	2e\	.	.
=184.	=184.	=184.	=184.	=184.
0GG	0G]	0d	0r	0g]
=185	=185	=185	=185	=185
0r	2E/	2.c\	0r	0r
.	2F/	.	.	.
.	.	4d\	.	.
.	2G/	2.e\	.	.
.	2A/	.	.	.
.	.	4f\	.	.
=186.	=186.	=186.	=186.	=186.
0r	0G	2.g\	0r	0r
.	.	4f\	.	.
.	.	2d\	.	.
.	.	2e\	.	.
=187	=187	=187	=187	=187
0r	2.F/	2.A/	0r	0r
.	4G/	4B\	.	.
.	2.A/	4c\	.	.
.	.	4d\	.	.
.	.	[2e\	.	.
.	4B\	.	.	.
=188.	=188.	=188.	=188.	=188.
0r	2.c\	2e\]	0r	1r
.	.	1d	.	.
.	4B\	.	.	.
.	2G/	.	.	1e
.	2A/	2c#i\	.	.
=189	=189	=189	=189	=189
2r	2.D/	0d	0F	2.f/
1D	.	.	.	.
.	4E/	.	.	4g/
.	4F/	.	.	2.a/
.	4G/	.	.	.
2D\	[2A/	.	.	.
.	.	.	.	4b\
=190.	=190.	=190.	=190.	=190.
4C/	2A/]	0r	1E	0cc
4BB/	.	.	.	.
4AA/	1G	.	.	.
4GG/	.	.	.	.
1AA	.	.	1C	.
.	2F#i/	.	.	.
=191	=191	=191	=191	=191
[0GG	0G	0r	0D	1b
.	.	.	.	2r
.	.	.	.	[2g/
=192.	=192.	=192.	=192.	=192.
0GG]	0r	0r	2r	2g/]
.	.	.	1G	2g/
.	.	.	.	2g/
.	.	.	2G/	2g/
=193	=193	=193	=193	=193
2r	0r	0r	2G/	2.g/
1C	.	.	2G/	.
.	.	.	.	4f/
.	.	.	1G	4e/
.	.	.	.	4f/
2C/	.	.	.	4g/
.	.	.	.	4f/
=194.	=194.	=194.	=194.	=194.
2C/	0r	0r	1A	4e/
.	.	.	.	4d/
2C/	.	.	.	1c
[1C	.	.	2G/	.
.	.	.	2F/	2d/
=195	=195	=195	=195	=195
1C]	0r	0r	1E	1e
1D	.	.	1D	2f/
.	.	.	.	2f/
=196.	=196.	=196.	=196.	=196.
2C/	0r	0r	0A	2e/
2BB/	.	.	.	2d/
1AA	.	.	.	2.c/
.	.	.	.	4d/
=197	=197	=197	=197	=197
0GG	0r	0r	0B	1d
.	.	.	.	2r
.	.	.	.	2d/
=198.	=198.	=198.	=198.	=198.
0D	0r	0r	1A	2.f/
.	.	.	.	4g/
.	.	.	1F	2a/
.	.	.	.	2b\
=199	=199	=199	=199	=199
0E	0r	0r	1G	2cc\
.	.	.	.	4b\
.	.	.	.	4a/
.	.	.	1G	1g
=200.	=200.	=200.	=200.	=200.
1D	0r	0r	2A/	2.f/
.	.	.	2D/	.
.	.	.	.	4g/
1D	.	.	2.F/	2a/
.	.	.	.	2b-i\
.	.	.	4G/	.
=201	=201	=201	=201	=201
2D\	0r	0r	2A/	2a/
2D\	.	.	2B\	4g/
.	.	.	.	4f/
2C/	.	.	2c\	2e/
[2F\	.	.	4B\	[2a/
.	.	.	4A/	.
=202.	=202.	=202.	=202.	=202.
*	*	*M2/1	*	*
*	*	*met()	*	*
!	!	!LO:N:vis=0.	!	!
4F\]	0r	0r	2G/	4a/]
4E\	.	.	.	4b\
2G\	.	.	2B\	1g
1D	.	.	1A	.
.	.	.	.	2f#i/
=203	=203	=203	=203	=203
*M3/1	*M3/1	*	*M3/1	*M3/1
*met()	*met()	*	*met(3)	*met(3)
!!primary-mensuration: met(3)
!!LO:N:vis=0
!	!LO:N:vis=0	!	!	!
0.GG	0.r	1d	1G	0g
.	.	1d	1B	.
.	.	1d	1B	1r
=204.	=204.	=204.	=204.	=204.
!!LO:N:vis=0
*	*M3/1	*	*	*
*	*met(3)	*	*	*
0.r	0.r	0d	1B	1b
.	.	.	1.d	1b
.	.	[1d	.	1b
.	.	.	2c\	.
=205	=205	=205	=205	=205
*M3/1	*	*	*	*
*met(3)	*	*	*	*
1GG	1G	1d]	2B\	1.dd
.	.	.	2A/	.
1GG	1G	0d	1G	.
.	.	.	.	2cc\
1GG	1G	.	1B	2b\
.	.	.	.	2a/
=206.	=206.	=206.	=206.	=206.
1.C	0G	0e	1c	0g
.	.	.	1c	.
2BB/	.	.	.	.
1BB	[1G	[1d	1G	1r
=207	=207	=207	=207	=207
0GG	1G]	1d]	0d	1b
.	0G	0B	.	1b
1G	.	.	1e	1b
=208.	=208.	=208.	=208.	=208.
1F	0A	0c	1f	1a
1F	.	.	1f	1.cc
1C	[1G	1c	1e	.
.	.	.	.	2b\
=209	=209	=209	=209	=209
1G	1G]	0B	1d	1.g
1GG	0E	.	2e\	.
.	.	.	2d\	2f/
[1AA	.	[1c	2c\	2e/
.	.	.	2B\	2d/
=210.	=210.	=210.	=210.	=210.
1AA]	0F	1c]	1A	1c
0D	.	0d	1A	1a
.	1F	.	1F	1b
=211	=211	=211	=211	=211
0C	0E	1e	0G	0cc
.	.	1e	.	.
[1D	[1F	[1d	1r	1a
=212.	=212.	=212.	=212.	=212.
1D]	1F]	1d]	0.r	1b
0E	0G	0c#i	.	1.g
.	.	.	.	2f/
=213	=213	=213	=213	=213
0D	1A	0.d	0.r	0f
.	1A	.	.	.
1BB	[1G	.	.	[1g
=214.	=214.	=214.	=214.	=214.
1C	1G]	0.r	0.r	1g]
0AA	0F#i	.	.	1a
.	.	.	.	1a
=215	=215	=215	=215	=215
0GG	0.G	0.r	1d	0.b
.	.	.	1e	.
1r	.	.	1d	.
=216.	=216.	=216.	=216.	=216.
1GG	0.r	1d	[0.G	0.r
1C	.	1e	.	.
1BB	.	1d	.	.
=217	=217	=217	=217	=217
0.GG	0.r	0.B	0.G]	0.r
=218.	=218.	=218.	=218.	=218.
0.r	1G	0.r	0.r	1b
.	1A	.	.	1cc
.	1G	.	.	1b
=219	=219	=219	=219	=219
0.r	0.E	1B	1G	0.g
.	.	1B	1G	.
.	.	1B	1G	.
=220.	=220.	=220.	=220.	=220.
0.r	0.r	1c	1A	0.r
.	.	1.d	0F	.
.	.	2e\	.	.
=221	=221	=221	=221	=221
1C	1E	0.e	1G	1g
1C	1E	.	1E	1g
1C	1E	.	1G	1cc
=222.	=222.	=222.	=222.	=222.
1D	1F	0.r	1F	1a
0BB	1.G	.	0D	1.dd
.	2A/	.	.	2cc\
=223	=223	=223	=223	=223
0AA	0.A	1.c	1E	0cc
.	.	.	1F	.
.	.	2d\	.	.
1r	.	1e	1E	1cc
=224.	=224.	=224.	=224.	=224.
1.AA	0.r	1f	[0.A	1.a
.	.	1.e	.	.
2BB/	.	.	.	2g/
1C	.	.	.	1e
.	.	2d\	.	.
=225	=225	=225	=225	=225
1D	1.F	0d	0.A]	1.f
0AA	.	.	.	.
.	2G/	.	.	2e/
.	1A	1c#i	.	1e
=226.	=226.	=226.	=226.	=226.
1.D	1B-i	[0.d	0.r	1.d
.	1.A	.	.	.
2E\	.	.	.	2c/
1F	.	.	.	1A
.	2G/	.	.	.
=227	=227	=227	=227	=227
1G	0G	0.d]	0.r	1.B
0D	.	.	.	.
.	.	.	.	2A/
.	1F#i	.	.	1A
=228.	=228.	=228.	=228.	=228.
*M2/1	*M3/3%2	*M2/1	*M2/1	*M2/1
*met(C|)	*met()	*met(C|)	*met(C|)	*met(C|)
!!primary-mensuration: met(C|)
!	!LO:N:vis:0.	!	!	!
[0GG	[0G	1r	1D	0B
.	.	1d	1D	.
=229	=229	=229	=229	=229
!	!LO:N:vis:0.	!	!	!
0GG]	0G]	0d	1D	1r
.	.	.	2G/	1b
.	.	.	2A/	.
=230.	=230.	=230.	=230.	=230.
*	*M2/1	*	*	*
*	*met(C|)	*	*	*
1r	1r	[0B	2B\	1.dd
.	.	.	2c\	.
[1G	1G	.	1d	.
.	.	.	.	2cc\
=231	=231	=231	=231	=231
2G\]	0G	0B]	[0e	2b\
2F\	.	.	.	2a/
2E\	.	.	.	[1g
2D\	.	.	.	.
=232.	=232.	=232.	=232.	=232.
2C/	[0E	0c	0e_	1g]
2BB/	.	.	.	.
1AA	.	.	.	[1a
=233	=233	=233	=233	=233
0r	0E]	0B	0e]	2a/]
.	.	.	.	4g/
.	.	.	.	4f/
.	.	.	.	1g
=234.	=234.	=234.	=234.	=234.
1D	0F	0A	1r	1a
1D	.	.	[1A	[1d
=235	=235	=235	=235	=235
0AA	0E	0e	1A]	2d/]
.	.	.	.	4c#i/
.	.	.	.	4B/
.	.	.	1A	1c#i
=236.	=236.	=236.	=236.	=236.
1r	0D	0f	2.F/	0d
.	.	.	4G/	.
1D	.	.	2A/	.
.	.	.	2B\	.
=237	=237	=237	=237	=237
2.C/	0A	1e	1c	1r
4BB/	.	.	.	.
1AA	.	1e	1C	1cc
=238.	=238.	=238.	=238.	=238.
0GG	0B-i	0r	0G	0dd
=239	=239	=239	=239	=239
0AA	1A	0e	1E	2.cc\
.	.	.	.	4b\
.	1A	.	1C	2a/
.	.	.	.	2g/
=240.	=240.	=240.	=240.	=240.
0BB-i	0r	0d	2.D/	2f/
.	.	.	.	2e/
.	.	.	4E/	.
.	.	.	2F/	1d
.	.	.	2G/	.
=241	=241	=241	=241	=241
1AA	0A	[0c	0C	1e
1FF	.	.	.	[1f
=242.	=242.	=242.	=242.	=242.
0C	0G	0c]	1r	2f/]
.	.	.	.	4e/
.	.	.	.	4d/
.	.	.	1E	1e
=243	=243	=243	=243	=243
[0D	[0F	[0A	1D	2r
.	.	.	.	1a
.	.	.	2d\	.
.	.	.	[2d\	[2a/
=244.	=244.	=244.	=244.	=244.
0D]	0F]	0A]	4d\]	2a/]
.	.	.	4c\	.
.	.	.	2B\	2g/
.	.	.	1A	4f/
.	.	.	.	4e/
.	.	.	.	2f/
=245	=245	=245	=245	=245
[0GG	[0D	1B	2G/	0g
.	.	.	2D/	.
.	.	[1d	2.G/	.
.	.	.	4A/	.
=246.	=246.	=246.	=246.	=246.
0GG]	0D]	2d\]	2B\	1g
.	.	2c\	2c\	.
.	.	2B\	1d	[1g
.	.	2A/	.	.
=247	=247	=247	=247	=247
1.C	1E	1.G	0c	2g/]
.	.	.	.	2e/
.	[1G	.	.	1e
4BB/	.	2A/	.	.
4AA/	.	.	.	.
=248.	=248.	=248.	=248.	=248.
1GG	2G/]	0B	2.B\	0r
.	2F/	.	.	.
.	.	.	4A/	.
1GG	2E/	.	2G/	.
.	2D/	.	2F/	.
=249	=249	=249	=249	=249
0AA	1.C	0c	1.E	1r
.	.	.	.	[1e
.	2D/	.	2F/	.
=250.	=250.	=250.	=250.	=250.
1r	0E	1B	1G	1e]
1C	.	[1e	1E	1g
=251	=251	=251	=251	=251
0D	0F	1e]	[0A	1.f
.	.	1d	.	.
.	.	.	.	4e/
.	.	.	.	4d/
=252.	=252.	=252.	=252.	=252.
1AA	1E	0e	0A]	1c
1C	[1A	.	.	1c
=253	=253	=253	=253	=253
0BB	1A]	1d	1r	0d
.	1G#i	1B	1D	.
=254.	=254.	=254.	=254.	=254.
0AA	0A	0c	2E/	2c/
.	.	.	2F/	2f/
.	.	.	2.C/	2e/
.	.	.	.	2f/
.	.	.	4D/	.
=255	=255	=255	=255	=255
0EE	1G	0B	2.E/	1g
.	.	.	4F/	.
.	1E	.	1G	2g/
.	.	.	.	[2e/
=256.	=256.	=256.	=256.	=256.
0r	0F	0r	0A	2e/]
.	.	.	.	4d/
.	.	.	.	4c/
.	.	.	.	1d
=257	=257	=257	=257	=257
1r	[0El	1r	1.G	0e
1EE	.	1B	.	.
.	.	.	2F/	.
=258.	=258.	=258.	=258.	=258.
0AA	0E_	1c	2E/	[0el
.	.	.	2D/	.
.	.	1A	1C	.
=259	=259	=259	=259	=259
0EEl	0E]	0Bl	0BBl	0e]
==	==	==	==	==
*-	*-	*-	*-	*-
!!!RDF**kern: l=long note in original notation
!!!RDF**kern: i=editorial accidental
!!!RDF**kern: V=start of tuplet marker
!!!RDF**kern: Z=end of tuplet marker
!!!ENC:	Chris Gage 01-15-2013
!!!END:	2013/07/17/
!!!EED:	Jesse Rodin
!!!EEV:	2013/07/19/
!!!ONB:	Translated from MusicXML and edited on 2013/07/19/ by Craig Sapp
!!muse2ps: T^@{OPR}^u^@{ONM}{. }@{OTL}^C^@{COM}^i2I150v85,85,85,85,130Q16
